assets/icons/arrow-right.svg

<svg width="24" height="25" viewBox="0 0 24 25" fill="none" xmlns="http://www.w3.org/2000/svg">
<path d="M5.83466 4.61192C5.47259 4.29628 5.38978 3.73788 5.65784 3.3189C5.92596 2.90002 6.4497 2.76925 6.86479 3.00183L6.94641 3.05325L17.1824 10.2772C17.9809 10.8407 18.5 11.6786 18.5 12.6376C18.5 13.5366 18.0442 14.3295 17.3293 14.8894L17.1824 14.998L6.94641 22.2219L6.86479 22.2733C6.4497 22.5059 5.92596 22.3751 5.65784 21.9563C5.38978 21.5373 5.47259 20.9789 5.83466 20.6632L5.91084 20.6032L16.1468 13.3793L16.2856 13.2717C16.5773 13.0204 16.6429 12.7826 16.6429 12.6376C16.6429 12.4719 16.5571 12.1855 16.1468 11.8958L5.91084 4.6719L5.83466 4.61192Z" fill="#111111"/>
</svg>

<svg xmlns="http://www.w3.org/2000/svg" width="24" height="25" fill="none" viewBox="0 0 24 25"><path fill="#111" d="M5.835 4.612a1.01 1.01 0 0 1-.177-1.293.903.903 0 0 1 1.207-.317l.081.051 10.236 7.224c.799.564 1.318 1.402 1.318 2.36 0 .9-.456 1.692-1.17 2.252l-.148.109-10.236 7.224-.081.051a.903.903 0 0 1-1.207-.317 1.01 1.01 0 0 1 .177-1.293l.076-.06 10.236-7.224.139-.107c.291-.252.357-.49.357-.634 0-.166-.086-.453-.496-.742L5.91 4.672z"/></svg>
